!!!COM: Fux, Johann Joseph
!!!OMD: Gradus ad Parnassum Exercise
!!!YEC: CC0 1.0 Universal (Public Domain). Mark Gotham and FourScoreAndMore.org waive all rights to this document.
**kern	**kern	**kern	**kern
*part4	*part3	*part2	*part1
*staff4	*staff3	*staff2	*staff1
*I"4	*I"3	*I"2	*I"1
*I'Pno	*I'Pno	*I'Pno	*I'Pno
!!LO:LB:g=z
*clefGv2	*clefG2	*clefG2	*clefG2
*k[]	*k[]	*k[]	*k[]
!!LO:TX:omd:t=
*M4/4	*M4/4	*M4/4	*M4/4
=111	=111	=111	=111
!	!	!	!LO:TX:a:t=Fig. 172; Species&colon; 1; Modal final&colon; f; Cantus firmus&colon; 4
1F	1f	1a	1cc
=112	=112	=112	=112
1G	1d	1g	1b
=113	=113	=113	=113
1A	1c	1e	1cc
=114	=114	=114	=114
1F	1c	1f	1a
=115	=115	=115	=115
1D	1d	1f	1a
=116	=116	=116	=116
1E	1c	1g	1cc
=117	=117	=117	=117
1F	1c	1a	1cc
=118	=118	=118	=118
1c	1e	1g	1cc
=119	=119	=119	=119
1A	1c	1f	1cc
=120	=120	=120	=120
1F	1d	1f	1a
=121	=121	=121	=121
1G	1B-X	1e	1b-X
=122	=122	=122	=122
1F	1c	1f	1a
==	==	==	==
*-	*-	*-	*-
!!!software: music21 v.9.7.1
!!!software: music21 v.9.7.1
!!!software: MuseScore 3.4.2
!!!RDF**kern: > = above
!!!RDF**kern: < = below
